X:1
T:A minor Oliver Holden, 1793
T:Isaac Watts, 1709 (Hymn 28, Book 1) 86. 86. (C. M.)
T:Idumea No copyright. Transcribed from The Union Harmony, 1793.
%%score [ 1 2 3 4 ]
L:1/8
M:4/4
K:C
V:1 treble nm="Treble" snm="Tr."
V:2 treble nm="Counter" snm="C."
V:3 treble-8 nm="Tenor" snm="T."
V:4 bass nm="Bass" snm="B."
V:1
 A4 | c2 c2 A2 c2 | B2 A2 G4- | G4 G4 | c2 B2 A2 ^G2 | A6 G2 | G2 G2 G2 A2 | B2 A2 G4- | G4 G4 | %9
w: 1.~What|migh- ty man, or|migh- ty God~|_ Comes|tra- vel- ling in|state, A-|long the I- du-|me- an road,~|_ A-|
w: 2.~The|glo- ry of his|robes pro- claim~|_ 'Tis|some vic- tor- ious|king: 'Tis|I, the Just, th'Al-|migh- ty one,~|_ That|
 A2 A2 ^G4 | ^G8 | A8 |] %12
w: way from Boz-|rah's|gate?|
w: your sal- va-|tion|bring."|
V:2
 E4 | A2 A2 E2 E2 | G2 ^D2 E4- | E4 E4 | E2 D2 E2 E2 | E6 E2 | E2 E2 E2 A2 | G2 E2 E4- | E4 E4 | %9
w: 3.~"Why,|migh- ty Lord," thy|saints in- quire,~|_ "Why|thine ap- pa- rel's|red? And|all thy ves- ture|stained like those~|_ Who|
w: 4.~~I|by my- self have|trod the press,~|_ And|crushed my foes a-|lone; My|wrath has struck the|re- bels dead,~|_ My|
 E2 F2 E4 | E8 | E8 |] %12
w: in the wine-|press|tread?"|
w: fu- ry stamped|them|down."|
V:3
 A4 | e2 ed c2 A2 | dc BA B4- | B4 c4 | e2 f2 ed cB | A6 B2 | c2 A2 c2 e2 | d2 c2 B4- | B4 c4 | %9
w: 5.~'Tis|Ed- om's * blood that|dyes * my * robes~|_ With|joy- ful scar- * let *|stains; The|tri- umph that my|rai- ment wears~|_ Sprung|
w: 6.~Thus|shall the * na- tions|be * de- * stroyed~|_ That|dare in- sult * my *|saints; I|have an arm t'~a-|venge their wrongs,~|_ An|
 e2 A2 c4 | B8 | A8 |] %12
w: from their blee-|ding|veins.|
w: ear for their|com-|plaints.|
V:4
 A,4 | A,2 A,2 E,2 A,2 | G,2 G,2 E,4- | E,4 C,4 | C,2 D,2 E,2 E,2 | A,,6 E,2 | C,2 C,2 C,2 C,2 | %7
 G,2 A,2 E,4- | E,4 C,4 | A,,2 D,2 E,4 | E,8 | A,,8 |] %12

